X: 280
T: Condon's Frolics
M: 6/8
L: 1/8
R: Jig
K:A Dorian
"Am"eAB c2d|"(C)"edc "G"BAG|"Am"eAB c2d|"(C)"e2d eag|
"Am"eAB c2d|"(C)"edc "G"BAB|GBd gdB|"Am"ABA A3:|
"Am" eaa "Em(C)"efg|"G"d2c BAB|"Am"cBc "G"dcd|"C"e2d efg|
"Am"eaa "Em(C)"efg|"G"d2c BAB|GBd gdB|"Am"ABA A3:|


